svgs/light/chart-simple.svg

<svg xmlns="http://www.w3.org/2000/svg" viewBox="0 0 448 512"><!--! Font Awesome Pro 6.6.0 by @fontawesome - https://fontawesome.com License - https://fontawesome.com/license (Commercial License) Copyright 2024 Fonticons, Inc. --><path d="M240 64c8.8 0 16 7.2 16 16l0 352c0 8.8-7.2 16-16 16l-32 0c-8.8 0-16-7.2-16-16l0-352c0-8.8 7.2-16 16-16l32 0zM208 32c-26.5 0-48 21.5-48 48l0 352c0 26.5 21.5 48 48 48l32 0c26.5 0 48-21.5 48-48l0-352c0-26.5-21.5-48-48-48l-32 0zM80 256c8.8 0 16 7.2 16 16l0 160c0 8.8-7.2 16-16 16l-32 0c-8.8 0-16-7.2-16-16l0-160c0-8.8 7.2-16 16-16l32 0zM48 224c-26.5 0-48 21.5-48 48L0 432c0 26.5 21.5 48 48 48l32 0c26.5 0 48-21.5 48-48l0-160c0-26.5-21.5-48-48-48l-32 0zm320-96l32 0c8.8 0 16 7.2 16 16l0 288c0 8.8-7.2 16-16 16l-32 0c-8.8 0-16-7.2-16-16l0-288c0-8.8 7.2-16 16-16zm-48 16l0 288c0 26.5 21.5 48 48 48l32 0c26.5 0 48-21.5 48-48l0-288c0-26.5-21.5-48-48-48l-32 0c-26.5 0-48 21.5-48 48z"/></svg>

<svg xmlns="http://www.w3.org/2000/svg" viewBox="0 0 448 512"><!--! Font Awesome Pro 6.4.0 by @fontawesome - https://fontawesome.com License - https://fontawesome.com/license (Commercial License) Copyright 2023 Fonticons, Inc. --><path d="M240 64c8.8 0 16 7.2 16 16V432c0 8.8-7.2 16-16 16H208c-8.8 0-16-7.2-16-16V80c0-8.8 7.2-16 16-16h32zM208 32c-26.5 0-48 21.5-48 48V432c0 26.5 21.5 48 48 48h32c26.5 0 48-21.5 48-48V80c0-26.5-21.5-48-48-48H208zM80 256c8.8 0 16 7.2 16 16V432c0 8.8-7.2 16-16 16H48c-8.8 0-16-7.2-16-16V272c0-8.8 7.2-16 16-16H80zM48 224c-26.5 0-48 21.5-48 48V432c0 26.5 21.5 48 48 48H80c26.5 0 48-21.5 48-48V272c0-26.5-21.5-48-48-48H48zm320-96h32c8.8 0 16 7.2 16 16V432c0 8.8-7.2 16-16 16H368c-8.8 0-16-7.2-16-16V144c0-8.8 7.2-16 16-16zm-48 16V432c0 26.5 21.5 48 48 48h32c26.5 0 48-21.5 48-48V144c0-26.5-21.5-48-48-48H368c-26.5 0-48 21.5-48 48z"/></svg>
